X:1
%%scale .90
T:Uncle Joe
C:/Trad
M:4/4
L:1/8
Q:1/4=120
K:G
%%titlefont Times-Bold 14
%%gchordfont Helvetica-Bold 12.0
%%partsfont Times-Roman 11.0
%%vocalfont Times-Bold 13.0
%%wordsfont Times-Roman 12.0
%%StrTabFont Times-Bold 14.0
%%stretchstaff yes
|:"G"GA Bc dB GA|B2 Bc B2 BA|GA Bc dB GB|"D"A2 AB A2 BA
w:1~Did~you~ev-er go to meet-ing Un-cle Joe? Un-cle Joe? Did you ev-er go to meet-ing Un-cle Joe? Un-cle Joe? Did you
|"G"GA Bc dB GA|B2 Bc B2 d2|"C"e2 ef ed ef|"D"ge dB Ac BA:|
w:ev-er go to meet-ing Un-cle Joe? Un-cle Joe? I don't mind the wea-ther if the wind_ don't_ blow.___
|:"G"G2 g2 ed eg|B2 BA B2 BA|G2 g2 ed eg|"D"a2 ab ag ed
w:Hop high my la-dies all in a row. Hop high my la-dies all in a row.
|"G"G2 g2 ed eg|B2 BA B2 d2|"C"e2 ef ed ef|1"D"ge dB A2 G2:|2"D"ge dB "G"G4||
w:
